img/instagram.svg

<svg width="21" height="21" viewBox="0 0 21 21" fill="none" xmlns="http://www.w3.org/2000/svg">
<path d="M10.5 21C16.299 21 21 16.299 21 10.5C21 4.70101 16.299 0 10.5 0C4.70101 0 0 4.70101 0 10.5C0 16.299 4.70101 21 10.5 21Z" fill="#6C27B3"/>
<path d="M15.369 5.452C14.1144 5.61081 12.8064 5.60527 11.4899 5.47993C9.65152 5.33851 6.96467 4.49002 5.97476 6.187C4.3845 8.90371 5.16884 12.3818 5.53942 15.4597L11.0657 20.9849C16.4137 20.7009 20.6997 16.4154 20.9846 11.0677L15.369 5.452Z" fill="#501A96"/>
<path d="M12.9292 4.48999H8.07073C6.09623 4.48999 4.4899 6.09633 4.4899 8.07082V12.9293C4.4899 14.9037 6.09623 16.5102 8.07077 16.5102H12.9293C14.9037 16.5102 16.5101 14.9038 16.5101 12.9293V8.07082C16.5101 6.09633 14.9037 4.48999 12.9292 4.48999ZM15.3009 12.9294C15.3009 14.2392 14.2391 15.301 12.9293 15.301H8.07077C6.76097 15.301 5.69916 14.2392 5.69916 12.9294V8.07086C5.69916 6.76107 6.76097 5.69921 8.07077 5.69921H12.9293C14.2391 5.69921 15.3009 6.76111 15.3009 8.07086V12.9294Z" fill="white"/>
<path d="M10.5 7.39136C8.78578 7.39136 7.39108 8.78605 7.39108 10.5003C7.39108 12.2143 8.78578 13.609 10.5 13.609C12.2142 13.609 13.6088 12.2145 13.6088 10.5003C13.6088 8.78605 12.2142 7.39136 10.5 7.39136ZM10.5 12.3998C9.45085 12.3998 8.60031 11.5494 8.60031 10.5003C8.60031 9.45108 9.45085 8.60058 10.5 8.60058C11.5491 8.60058 12.3995 9.45104 12.3995 10.5003C12.3995 11.5494 11.5491 12.3998 10.5 12.3998Z" fill="white"/>
<path d="M14.3597 7.41464C14.3597 7.82603 14.0261 8.15961 13.6147 8.15961C13.2033 8.15961 12.8698 7.82603 12.8698 7.41464C12.8698 7.00322 13.2033 6.66968 13.6147 6.66968C14.0262 6.66968 14.3597 7.00314 14.3597 7.41464Z" fill="#D1D1D1"/>
<path d="M12.9293 4.48999H10.4764V5.69921H12.9293C14.239 5.69921 15.3009 6.76111 15.3009 8.07086V12.9294C15.3009 14.2392 14.239 15.301 12.9293 15.301H10.4764V16.5102H12.9293C14.9037 16.5102 16.5101 14.9038 16.5101 12.9293V8.07082C16.5101 6.09633 14.9037 4.48999 12.9293 4.48999Z" fill="#D1D1D1"/>
<path d="M10.5 7.39136C10.4921 7.39136 10.4844 7.39193 10.4764 7.39193V8.60115C10.4843 8.60107 10.4921 8.60058 10.5 8.60058C11.5491 8.60058 12.3995 9.45104 12.3995 10.5003C12.3995 11.5494 11.5492 12.3998 10.5 12.3998C10.4921 12.3998 10.4843 12.3993 10.4764 12.3992V13.6085C10.4844 13.6085 10.4921 13.609 10.5 13.609C12.2142 13.609 13.6088 12.2144 13.6088 10.5003C13.6088 8.78605 12.2142 7.39136 10.5 7.39136Z" fill="#D1D1D1"/>
</svg>

<svg xmlns="http://www.w3.org/2000/svg" width="21" height="21" fill="none" xmlns:v="https://vecta.io/nano"><path d="M10.5 21C16.299 21 21 16.299 21 10.5S16.299 0 10.5 0 0 4.701 0 10.5 4.701 21 10.5 21z" fill="#6c27b3"/><path d="M15.369 5.452c-1.255.159-2.563.153-3.879.028-1.838-.141-4.525-.99-5.515.707-1.59 2.717-.806 6.195-.435 9.273l5.526 5.525c5.348-.284 9.634-4.569 9.919-9.917l-5.616-5.616z" fill="#501a96"/><path d="M12.929 4.49H8.071c-1.974 0-3.581 1.606-3.581 3.581v4.858c0 1.974 1.606 3.581 3.581 3.581h4.859c1.974 0 3.581-1.606 3.581-3.581V8.071c0-1.974-1.606-3.581-3.581-3.581zm2.372 8.439a2.37 2.37 0 0 1-2.372 2.372H8.071a2.37 2.37 0 0 1-2.372-2.372V8.071a2.37 2.37 0 0 1 2.372-2.372h4.859a2.37 2.37 0 0 1 2.372 2.372v4.859zM10.5 7.391c-1.714 0-3.109 1.395-3.109 3.109s1.395 3.109 3.109 3.109 3.109-1.395 3.109-3.109-1.395-3.109-3.109-3.109zm0 5.008a1.9 1.9 0 1 1 0-3.8 1.9 1.9 0 1 1 0 3.8z" fill="#fff"/><path d="M14.36 7.415c0 .411-.334.745-.745.745s-.745-.334-.745-.745.334-.745.745-.745.745.333.745.745zM12.929 4.49h-2.453v1.209h2.453a2.37 2.37 0 0 1 2.372 2.372v4.859a2.37 2.37 0 0 1-2.372 2.372h-2.453v1.209h2.453c1.974 0 3.581-1.606 3.581-3.581V8.071c0-1.974-1.606-3.581-3.581-3.581zM10.5 7.391l-.024.001v1.209h.024a1.9 1.9 0 1 1 0 3.8c-.008 0-.016-.001-.024-.001v1.209h.024c1.714 0 3.109-1.395 3.109-3.109S12.214 7.391 10.5 7.391z" fill="#d1d1d1"/></svg>
